X: 28719
T: My Dungannon Sweetheart
R: jig
M: 6/8
K: Cmajor
G,|:C2 E Gcd|e3 e2 B|dc/c/c cGE|GFF FDB,|
G,B,D GBd|g3 g2 e|fdB GAB|1 cEA GED:|2 c3 c2 d||
|:ee/e/e ecA|G3- GEA|GEA GEA|GFF FEF|
fff fdB|GB/c/d g2 e|fdB GAB|1 cEA Gcd:|2 c3- c2||

